!!!SOCIAL_FUNCTION:	misc songs
!!!PDT:	1936
!!!OTL: No_70_The_Platte_River.krn
!!!REG: Oklahoma and Montana
!!!LANG: Tone
!!!LING_GROUP: Algonquin
**kern
*staff1
=1-
=
*clefF4
*k[b-]
*M2/4
8.r
(16c\
8.c\L)
16c\Jk
=2
4f\
8.f\L
16f\Jk
=3
4A\
8c\L
8c\J
=4
4f\
16.c\LL
32c\JK
8c\J
=5
16.c\LL
32c\JK
8c\J
16A\LL
16A\J
8G\J
=6
8c\L
8A\J
8.c\L
16A\Jk
=7
8.F\L
16F\Jk
[4F\
=8
4.F\]
8r
=9
8G\L
8G\J
8A\L
16A\L
16G\JJ
=10
8F\L
8F\J
8F\L
8G\J
=11
16G\LK
8.F\J
8.C/L
16C/Jk
=12
2C/
==:|!
*-
